Numix-GalliumOS/16/mimetypes/gdlink.svg

<?xml version="1.0" encoding="UTF-8" standalone="no"?>
<svg
   xmlns:dc="http://purl.org/dc/elements/1.1/"
   xmlns:cc="http://creativecommons.org/ns#"
   xmlns:rdf="http://www.w3.org/1999/02/22-rdf-syntax-ns#"
   xmlns:svg="http://www.w3.org/2000/svg"
   xmlns="http://www.w3.org/2000/svg"
   xmlns:sodipodi="http://sodipodi.sourceforge.net/DTD/sodipodi-0.dtd"
   xmlns:inkscape="http://www.inkscape.org/namespaces/inkscape"
   width="16"
   height="16"
   viewBox="0 0 16 16"
   id="svg2"
   version="1.1"
   inkscape:version="0.91 r13725"
   sodipodi:docname="gdlink.svg">
  <metadata
     id="metadata22">
    <rdf:RDF>
      <cc:Work
         rdf:about="">
        <dc:format>image/svg+xml</dc:format>
        <dc:type
           rdf:resource="http://purl.org/dc/dcmitype/StillImage" />
      </cc:Work>
    </rdf:RDF>
  </metadata>
  <defs
     id="defs20">
    <clipPath
       id="clipPath-201045889">
      <g
         transform="translate(0,-1004.3622)"
         id="g17">
        <path
           style="fill:#1890d0"
           inkscape:connector-curvature="0"
           d="m -24,13 c 0,1.105 -0.672,2 -1.5,2 -0.828,0 -1.5,-0.895 -1.5,-2 0,-1.105 0.672,-2 1.5,-2 0.828,0 1.5,0.895 1.5,2 z"
           transform="matrix(15.333333,0,0,11.5,414.99999,878.8622)"
           id="path19" />
      </g>
    </clipPath>
  </defs>
  <sodipodi:namedview
     pagecolor="#ffffff"
     bordercolor="#666666"
     borderopacity="1"
     objecttolerance="10"
     gridtolerance="10"
     guidetolerance="10"
     inkscape:pageopacity="0"
     inkscape:pageshadow="2"
     inkscape:window-width="1280"
     inkscape:window-height="998"
     id="namedview18"
     showgrid="true"
     inkscape:zoom="59"
     inkscape:cx="9.2097749"
     inkscape:cy="5.8608174"
     inkscape:window-x="0"
     inkscape:window-y="0"
     inkscape:window-maximized="1"
     inkscape:current-layer="svg2">
    <inkscape:grid
       type="xygrid"
       id="grid3010" />
  </sodipodi:namedview>
  <path
     style="fill:#3e86fb;fill-opacity:1"
     d="M 2.667969,-4.465e-4 C 2.324219,-4.465e-4 2,0.3378115 2,0.6964462 L 2,15.303108 C 2,15.641365 2.34375,16 2.667969,16 l 10.664062,0 C 13.65625,16 14,15.641365 14,15.303108 L 14,3.9995533 10,-4.465e-4 z"
     id="path4-2"
     inkscape:connector-curvature="0"
     sodipodi:nodetypes="ssssssccs" />
  <path
     style="fill:#000000;fill-opacity:0.19599998"
     d="m 10.583223,3.3315843 0.0154,0.01953 0.04005,-0.01953 z m 0.02978,0.667969 3.387,3.664062 0,-3.664062 z"
     id="path6"
     inkscape:connector-curvature="0"
     sodipodi:nodetypes="cccccccc" />
  <path
     style="fill:#ffffff;fill-opacity:0.39200003"
     d="m 10,-4.465e-4 3.996396,3.9999998 -3.383784,0 C 10.313513,3.9995533 10,3.6824363 10,3.3833373 z"
     id="path8"
     inkscape:connector-curvature="0"
     sodipodi:nodetypes="ccssc" />
  <g
     id="g3342"
     transform="translate(-0.2004068,0)">
    <polygon
       points="44385,76894 133156,76894 110963,115341 22194,115341 "
       style="opacity:1;fill:#f9f9f9;fill-opacity:1;fill-rule:evenodd"
       transform="matrix(6.7208839e-5,0,0,5.2019663e-5,4.05074,7)"
       id="polygon3475-1" />
    <polygon
       points="133156,76894 88772,0 44385,0 88772,76894 "
       style="opacity:1;fill:#f9f9f9;fill-opacity:1;fill-rule:evenodd"
       transform="matrix(6.7589641e-5,0,0,6.5024579e-5,4.0000338,5.0000376)"
       id="polygon3477-6" />
    <path
       sodipodi:nodetypes="ccccc"
       inkscape:connector-curvature="0"
       id="polygon3479-9"
       d="M 6.5184386,5.0290648 3.4644068,10.075867 4.8944433,13.009418 7.8684808,7.6700795 Z"
       style="opacity:1;fill:#f9f9f9;fill-opacity:1;fill-rule:evenodd" />
  </g>
</svg>

<svg xmlns="http://www.w3.org/2000/svg" viewBox="0 0 16 16">
 <defs>
  
 </defs>
 <path d="m 2.668 0 c -0.344 0 -0.668 0.338 -0.668 0.697 l 0 14.607 c 0 0.338 0.344 0.697 0.668 0.697 l 10.664 0 c 0.324 0 0.668 -0.359 0.668 -0.697 l 0 -11.304 -4 -4 z" style="fill:#3e86fb;fill-opacity:1"/>
 <path d="m 10.583 3.332 0.015 0.02 0.04 -0.02 z m 0.03 0.668 3.387 3.664 0 -3.664 z" style="fill:#000;fill-opacity:0.196"/>
 <path d="m 10 0 3.996 4 -3.384 0 c -0.299 0 -0.613 -0.317 -0.613 -0.616 z" style="fill:#fff;fill-opacity:0.392"/>
 <g transform="translate(-0.2004068,0)">
  <polygon points="44385,76894 133156,76894 110963,115341 22194,115341 " transform="matrix(6.7208839e-5,0,0,5.2019663e-5,4.05074,7)" style="fill:#f9f9f9;opacity:1;fill-opacity:1;fill-rule:evenodd"/>
  <polygon points="133156,76894 88772,0 44385,0 88772,76894 " transform="matrix(6.7589641e-5,0,0,6.5024579e-5,4.0000338,5.0000376)" style="fill:#f9f9f9;opacity:1;fill-opacity:1;fill-rule:evenodd"/>
  <path d="m 6.518 5.03 -3.054 5.05 1.43 2.934 2.974 -5.339" style="fill:#f9f9f9;opacity:1;fill-opacity:1;fill-rule:evenodd"/>
 </g>
</svg>
